Otagle3/Assets/ikonySvG/PoziomaLiniaProstaNaKanwie.svg

<svg id="SVGRoot" width="206px" height="206px" version="1.1" viewBox="0 0 206 206" xmlns="http://www.w3.org/2000/svg">
 <g transform="matrix(3.7795 0 0 3.7795 -1795.2 2502.6)">
  <flowRoot fill="black" font-family="sans-serif" font-size="40px" letter-spacing="0px" word-spacing="0px" style="line-height:1.25" xml:space="preserve"><flowRegion><rect x="-392.69" y="-63.57" width="758.02" height="397.52"/></flowRegion><flowPara/></flowRoot>
  <flowRoot fill="black" font-family="sans-serif" font-size="40px" letter-spacing="0px" word-spacing="0px" style="line-height:1.25" xml:space="preserve"><flowRegion><rect x="-251.87" y="-84.492" width="624.44" height="455.45"/></flowRegion><flowPara/></flowRoot>
  <flowRoot fill="black" font-family="sans-serif" font-size="40px" letter-spacing="0px" word-spacing="0px" style="line-height:1.25" xml:space="preserve"><flowRegion><rect x="-202.78" y="-50.695" width="473.96" height="281.64"/></flowRegion><flowPara/></flowRoot>
  <flowRoot fill="black" font-family="sans-serif" font-size="40px" letter-spacing="0px" word-spacing="0px" style="line-height:1.25" xml:space="preserve"><flowRegion><rect x="-86.906" y="-78.859" width="516.61" height="410.39"/></flowRegion><flowPara/></flowRoot>
  <flowRoot fill="black" font-family="sans-serif" font-size="40px" letter-spacing="0px" word-spacing="0px" style="line-height:1.25" xml:space="preserve"><flowRegion><rect x="-81.273" y="-32.188" width="309" height="322.68"/></flowRegion><flowPara/></flowRoot>
  <flowRoot fill="black" font-family="sans-serif" font-size="40px" letter-spacing="0px" word-spacing="0px" style="line-height:1.25" xml:space="preserve"><flowRegion><rect x="-90.93" y="-68.398" width="392.69" height="252.67"/></flowRegion><flowPara/></flowRoot>
  <g transform="translate(675.17 -.21291)">
   <flowRoot fill="black" font-family="sans-serif" font-size="40px" letter-spacing="0px" word-spacing="0px" style="line-height:1.25" xml:space="preserve"><flowRegion><rect x="-100.59" y="-53.109" width="462.7" height="369.35"/></flowRegion><flowPara/></flowRoot>
   <g transform="translate(57.194 .21291)">
    <flowRoot fill="black" font-family="sans-serif" font-size="40px" letter-spacing="0px" word-spacing="0px" style="line-height:1.25" xml:space="preserve"><flowRegion><rect x="-329.12" y="-12.07" width="696.05" height="259.91"/></flowRegion><flowPara/></flowRoot>
    <g transform="translate(-1495.1 -629.38)">
     <flowRoot fill="black" font-family="sans-serif" font-size="40px" letter-spacing="0px" word-spacing="0px" style="line-height:1.25" xml:space="preserve"><flowRegion><rect x="-306.59" y="-111.05" width="206" height="51.5"/></flowRegion><flowPara/></flowRoot>
     <flowRoot fill="black" font-family="sans-serif" font-size="40px" letter-spacing="0px" word-spacing="0px" style="line-height:1.25" xml:space="preserve"><flowRegion><rect x="-70.812" y="-36.211" width="362.91" height="283.25"/></flowRegion><flowPara/></flowRoot>
     <g transform="translate(538.4 -400.97)">
      <flowRoot fill="black" font-family="sans-serif" font-size="40px" letter-spacing="0px" word-spacing="0px" style="line-height:1.25" xml:space="preserve"><flowRegion><rect x="-138.41" y="-65.18" width="448.21" height="363.72"/></flowRegion><flowPara/></flowRoot>
      <flowRoot fill="black" font-family="sans-serif" font-size="40px" letter-spacing="0px" word-spacing="0px" style="line-height:1.25" xml:space="preserve"><flowRegion><rect x="-67.578" y="-8.4531" width="327.73" height="260.94"/></flowRegion><flowPara/></flowRoot>
      <g transform="translate(-1254.1 .2536)">
       <rect x="1954.7" y="369.25" width="52.258" height="52.258" fill="#fff" stroke="#000" stroke-linecap="round" stroke-width=".5" style="paint-order:fill markers stroke"/>
       <text x="1980.6652" y="411.19955" font-family="sans-serif" font-size="4.9389px" letter-spacing="0px" stroke-width=".26458" text-align="center" text-anchor="middle" word-spacing="0px" style="line-height:0.94999999" xml:space="preserve"><tspan x="1980.6652" y="411.19955" text-align="center">Pozioma linia</tspan><tspan x="1980.6652" y="417.23206" text-align="center">prosta na kanwie</tspan></text>
       <g transform="matrix(.26458 0 0 .26458 1967.6 374.34)">
        <path d="m15.812 6a2.0002 2.0002 0 00-1.8125 2v60a2.0002 2.0002 0 002 2h22.75l-10.531 21.094a2.0002 2.0002 0 103.5625 1.8125l11.469-22.906h4.75v16a2.0002 2.0002 0 104 0v-16h4.75l11.469 22.906a2.0002 2.0002 0 103.5625-1.8125l-10.531-21.094h22.75a2.0002 2.0002 0 002-2v-60a2.0002 2.0002 0 00-2-2h-68a2.0002 2.0002 0 00-.1875 0zm2.1875 4h64v56h-31.625a2.0002 2.0002 0 00-.40625-.03125 2.0002 2.0002 0 00-.40625.03125h-31.562z" color="#000000" style="text-decoration-line:none;text-indent:0;text-transform:none"/>
       </g>
       <path d="m1974.4 384.19h12.891" fill="none" stroke="#000" stroke-width="3"/>
      </g>
     </g>
    </g>
   </g>
  </g>
 </g>
</svg>

<?xml version="1.0" encoding="UTF-8" standalone="no"?>
<svg
   xmlns:dc="http://purl.org/dc/elements/1.1/"
   xmlns:cc="http://creativecommons.org/ns#"
   xmlns:rdf="http://www.w3.org/1999/02/22-rdf-syntax-ns#"
   xmlns:svg="http://www.w3.org/2000/svg"
   xmlns="http://www.w3.org/2000/svg"
   id="svg47"
   version="1.1"
   viewBox="0 0 52.758294 52.758296"
   height="199.40143"
   width="199.40143">
  <defs
     id="defs42">
    <pattern
       id="EMFhbasepattern"
       patternUnits="userSpaceOnUse"
       width="6"
       height="6"
       x="0"
       y="0" />
  </defs>
  <metadata
     id="metadata45">
    <rdf:RDF>
      <cc:Work
         rdf:about="">
        <dc:format>image/svg+xml</dc:format>
        <dc:type
           rdf:resource="http://purl.org/dc/dcmitype/StillImage" />
        <dc:title></dc:title>
      </cc:Work>
    </rdf:RDF>
  </metadata>
  <g
     id="g8556"
     transform="translate(49.836509,-375.23204)">
    <g
       id="g5305">
      <text
         id="text898-7-3-6-8-3-3-0-66-7-8-8-0-8-3-4-2-6-22-3-3-4-7-0-2-6-2"
         y="425.61624"
         x="-23.21401"
         style="font-size:6.3499999px;line-height:0.94999999;font-family:voestalpine;-inkscape-font-specification:voestalpine;text-align:center;letter-spacing:0px;word-spacing:0px;text-anchor:middle;fill:#ffffff;fill-opacity:1;stroke-width:0.26458299"
         xml:space="preserve"><tspan
           style="font-size:6.3499999px;text-align:center;text-anchor:middle;fill:#ffffff;fill-opacity:1;stroke-width:0.26458299"
           y="425.61624"
           x="-23.21401"
           id="tspan3280-8-2-3-8">Pokaż nagłówek</tspan></text>
      <g
         style="fill:#ffffff;fill-opacity:1;stroke:#ffffff;stroke-opacity:1"
         id="g3425-7-6"
         transform="matrix(0.43424404,0,0,-0.43424404,-45.178706,415.78283)">
        <rect
           id="rect3393-7-1"
           height="2"
           width="13.89"
           y="68.667"
           x="17.409"
           style="fill:#ffffff;fill-opacity:1;stroke:#ffffff;stroke-opacity:1" />
        <path
           id="path3395-1-7"
           d="M 85.235,77.833 H 14.106 c -2.998,0 -5.436,-2.438 -5.436,-5.436 V 23.27 c 0,-2.998 2.438,-5.436 5.436,-5.436 h 71.129 c 2.998,0 5.436,2.438 5.436,5.436 v 49.128 c -0.001,2.998 -2.438,5.435 -5.436,5.435 z m -71.129,-58 c -1.895,0 -3.436,1.541 -3.436,3.437 v 49.128 c 0,1.895 1.541,3.436 3.436,3.436 h 71.129 c 1.895,0 3.436,-1.541 3.436,-3.436 V 23.27 c 0,-1.896 -1.541,-3.437 -3.436,-3.437 z"
           style="fill:#ffffff;fill-opacity:1;stroke:#ffffff;stroke-opacity:1" />
        <rect
           id="rect3397-6-6"
           height="2"
           width="13.89"
           y="68.667"
           x="42.648998"
           style="fill:#ffffff;fill-opacity:1;stroke:#ffffff;stroke-opacity:1" />
        <rect
           id="rect3399-8-5"
           height="2"
           width="13.89"
           y="68.667"
           x="67.704002"
           style="fill:#ffffff;fill-opacity:1;stroke:#ffffff;stroke-opacity:1" />
        <rect
           id="rect3401-4-7"
           height="2"
           width="13.89"
           y="62.667"
           x="17.500999"
           style="fill:#ffffff;fill-opacity:1;stroke:#ffffff;stroke-opacity:1" />
        <rect
           id="rect3403-9-4"
           height="2"
           width="13.89"
           y="62.667"
           x="42.742001"
           style="fill:#ffffff;fill-opacity:1;stroke:#ffffff;stroke-opacity:1" />
        <rect
           id="rect3405-2-5"
           height="2"
           width="13.89"
           y="62.667"
           x="67.795998"
           style="fill:#ffffff;fill-opacity:1;stroke:#ffffff;stroke-opacity:1" />
        <rect
           id="rect3407-0-9"
           height="2"
           width="64.139"
           y="56.667"
           x="17.500999"
           style="fill:#ffffff;fill-opacity:1;stroke:#ffffff;stroke-opacity:1" />
      </g>
      <g
         id="g10724"
         transform="translate(-2004.2952,6.1137146)">
        <rect
           style="fill:#ffffff;stroke:#000000;stroke-width:0.49999899;stroke-linecap:round;stroke-miterlimit:4;stroke-dasharray:none;stroke-opacity:1;paint-order:fill markers stroke"
           id="rect833-1-5-3-7-4-8-5-1-4-2-8-1-5-8-6-0-5-58-4-8-8-2-4-0-0-9"
           width="52.258293"
           x="1954.6746"
           y="369.25134"
           height="52.258293" />
        <text
           xml:space="preserve"
           style="font-size:6.3499999px;line-height:0.94999999;font-family:voestalpine;-inkscape-font-specification:voestalpine;text-align:center;letter-spacing:0px;word-spacing:0px;text-anchor:middle;stroke-width:0.26458299"
           x="1980.6652"
           y="412.89352"
           id="text898-7-3-6-8-3-3-0-66-7-8-8-0-8-3-4-2-6-22-3-3-4-7-0-2-6-6"><tspan
             id="tspan3280-8-2-3-0"
             x="1980.6652"
             y="412.89352"
             style="font-size:6.3499999px;text-align:center;text-anchor:middle;stroke-width:0.26458299">Pozioma linia</tspan><tspan
             id="tspan3757"
             x="1980.6652"
             y="418.92603"
             style="font-size:6.3499999px;text-align:center;text-anchor:middle;stroke-width:0.26458299">prosta na kanwie</tspan></text>
        <g
           transform="matrix(0.26458333,0,0,0.26458333,1967.5745,374.33952)"
           id="g3770"
           style="fill:#000000">
          <path
             style="color:#000000;font-style:normal;font-variant:normal;font-weight:normal;font-stretch:normal;font-size:medium;line-height:normal;font-family:Sans;-inkscape-font-specification:Sans;text-indent:0;text-align:start;text-decoration:none;text-decoration-line:none;letter-spacing:normal;word-spacing:normal;text-transform:none;writing-mode:lr-tb;direction:ltr;baseline-shift:baseline;text-anchor:start;display:inline;overflow:visible;visibility:visible;opacity:1;fill:#000000;fill-opacity:1;stroke:none;stroke-width:4;marker:none;enable-background:accumulate"
             d="M 15.8125,6 A 2.0002,2.0002 0 0 0 14,8 v 60 a 2.0002,2.0002 0 0 0 2,2 H 38.75 L 28.21875,91.09375 a 2.0002,2.0002 0 1 0 3.5625,1.8125 L 43.25,70 H 48 v 16 a 2.0002,2.0002 0 1 0 4,0 V 70 h 4.75 l 11.46875,22.90625 a 2.0002,2.0002 0 1 0 3.5625,-1.8125 L 61.25,70 H 84 a 2.0002,2.0002 0 0 0 2,-2 V 8 A 2.0002,2.0002 0 0 0 84,6 H 16 A 2.0002,2.0002 0 0 0 15.8125,6 Z M 18,10 H 82 V 66 H 50.375 A 2.0002,2.0002 0 0 0 49.96875,65.96875 2.0002,2.0002 0 0 0 49.5625,66 H 18 Z"
             id="path3759" />
        </g>
        <path
           id="path3787"
           d="m 1974.3582,384.18568 c 4.2972,0 8.5942,0 12.891,0"
           style="fill:none;stroke:#000000;stroke-width:3;stroke-linecap:butt;stroke-linejoin:miter;stroke-miterlimit:4;stroke-dasharray:none;stroke-opacity:1" />
      </g>
    </g>
  </g>
</svg>
